icons/insecticide_resistance.svg

<svg width="48" height="48" viewBox="0 0 48 48" fill="none" xmlns="http://www.w3.org/2000/svg">
<path fill-rule="evenodd" clip-rule="evenodd" d="M23.9994 4C24.5517 4 24.9994 4.44772 24.9994 5V11.3174C25.2267 11.4715 25.4146 11.6638 25.5634 11.8525C25.5962 11.8943 25.6284 11.9372 25.6598 11.9813L27.3592 10.5651C27.4817 10.463 27.6268 10.3917 27.7825 10.3571L30.7825 9.69046C31.3216 9.57065 31.8558 9.91059 31.9756 10.4497C32.0954 10.9889 31.7555 11.523 31.2164 11.6428L28.4532 12.2569L26.6396 13.7682C26.5931 13.8069 26.5442 13.8407 26.4934 13.8696L26.5122 13.9373L37.6855 15.2235L37.8808 15.8416C38.1318 16.6362 38.0318 17.7623 37.0984 18.6523C36.2041 19.505 34.6916 20 32.4146 20C30.0317 20 28.4008 19.2592 27.3664 18.198C27.2324 18.0605 27.1098 17.9191 26.9981 17.7752C26.999 17.8499 26.9995 17.9248 26.9995 18C26.9995 18.3787 26.9884 18.7516 26.9668 19.1158C27.0026 19.1348 27.0378 19.1562 27.0719 19.18L29.3203 20.7497C29.4137 20.8149 29.4953 20.8956 29.5615 20.9883L30.7728 22.6836L32.7906 23.1905C33.3263 23.3251 33.6514 23.8684 33.5169 24.404C33.3823 24.9397 32.839 25.2648 32.3034 25.1303L29.9292 24.5338C29.6991 24.4761 29.4971 24.3383 29.3591 24.1453L28.0343 22.2911L26.6823 21.3473C26.6016 21.74 26.5065 22.1089 26.3983 22.4484L28.0157 23.803C28.2985 24.0399 28.428 24.4131 28.3525 24.7742L27.8803 27.0341L29.139 28.2929C29.5296 28.6834 29.5296 29.3166 29.139 29.7071C28.7485 30.0976 28.1154 30.0976 27.7248 29.7071L26.0837 28.066C25.8452 27.8274 25.743 27.4846 25.812 27.1544L26.2722 24.9516L25.4601 24.2714C25.1293 24.6468 24.6427 25 23.9995 25C23.4013 25 22.9386 24.6947 22.6108 24.35L22.1271 24.8711L22.6041 27.1544C22.6732 27.4847 22.571 27.8275 22.3324 28.0661L20.6913 29.7071C20.3008 30.0977 19.6676 30.0977 19.2771 29.7071C18.8866 29.3166 18.8866 28.6835 19.2771 28.2929L20.5358 27.0342L20.0636 24.7742C19.9973 24.4569 20.089 24.127 20.3096 23.8894L21.6125 22.4856C21.514 22.1809 21.426 21.852 21.3496 21.503L20.4017 22.2634L19.057 24.1454C18.9191 24.3384 18.7171 24.4761 18.487 24.5339L16.1128 25.1303C15.5771 25.2649 15.0338 24.9397 14.8993 24.4041C14.7647 23.8684 15.0899 23.3251 15.6255 23.1906L17.6433 22.6837L18.8546 20.9883C18.9079 20.9138 18.9711 20.8469 19.0426 20.7896L20.9996 19.2199C21.0118 19.2101 21.0242 19.2006 21.0368 19.1915C21.0122 18.8034 20.9995 18.405 20.9995 18C20.9995 17.9248 20.9999 17.8499 21.0008 17.7752C20.8891 17.9191 20.7665 18.0605 20.6325 18.198C19.5981 19.2592 17.9672 20 15.5843 20C13.3073 20 11.7948 19.505 10.9005 18.6523C9.96712 17.7623 9.86712 16.6362 10.1181 15.8416L10.3134 15.2235L21.4868 13.9373L21.5055 13.8697C21.4547 13.8407 21.4057 13.8069 21.3593 13.7682L19.5457 12.2569L16.7825 11.6429C16.2434 11.523 15.9035 10.9889 16.0233 10.4497C16.1431 9.9106 16.6772 9.57067 17.2164 9.69048L20.2164 10.3571C20.372 10.3917 20.5171 10.463 20.6396 10.5651L22.3391 11.9813C22.3705 11.9372 22.4027 11.8943 22.4356 11.8525C22.5843 11.6638 22.7722 11.4715 22.9994 11.3175V5C22.9994 4.44772 23.4471 4 23.9994 4ZM35.8691 17.0277C35.83 17.086 35.7804 17.1455 35.7182 17.2048C35.3639 17.5426 34.4697 18 32.4146 18C30.4654 18 29.3887 17.4075 28.7986 16.802C28.5966 16.5948 28.441 16.3754 28.3232 16.159L35.8691 17.0277ZM12.1298 17.0277C12.1689 17.086 12.2185 17.1455 12.2807 17.2048C12.635 17.5426 13.5292 18 15.5843 18C17.5335 18 18.6102 17.4075 19.2003 16.802C19.4023 16.5948 19.5579 16.3754 19.6757 16.159L12.1298 17.0277ZM22.9995 18C22.9995 16.4207 23.2143 15.0325 23.5339 14.0736C23.6928 13.5969 23.8602 13.2794 23.9995 13.0993C24.1387 13.2794 24.3061 13.5969 24.465 14.0736C24.7846 15.0325 24.9995 16.4207 24.9995 18C24.9995 19.5793 24.7846 20.9675 24.465 21.9264C24.3061 22.4031 24.1387 22.7206 23.9995 22.9007C23.8602 22.7206 23.6928 22.4031 23.5339 21.9264C23.2143 20.9675 22.9995 19.5793 22.9995 18Z" fill="black"/>
<path d="M23 40.5859L28.5859 35H24.9999V33H31.9999V40H29.9999V36.4144L24.4143 42H35.9999V44H11.9999V42H21.5857L14.2929 34.7072L15.7071 33.293L23 40.5859Z" fill="black"/>
</svg>

<svg
  xmlns="http://www.w3.org/2000/svg"
  width="24"
  height="24"
  viewBox="0 0 24 24"
  fill="none"
  stroke="currentColor"
  stroke-width="2"
  stroke-linecap="round"
  stroke-linejoin="round"
>
  <path
    fill-rule="evenodd"
    d="M24 4a1 1 0 0 1 1 1v6.317a2.6 2.6 0 0 1 .66.664l1.7-1.416a1 1 0 0 1 .422-.208l3-.667a1 1 0 0 1 .434 1.953l-2.763.614-1.813 1.511a1 1 0 0 1-.147.102l.02.067 11.172 1.287.196.618c.25.794.15 1.92-.783 2.81-.894.853-2.406 1.348-4.683 1.348-2.383 0-4.014-.74-5.049-1.802a5 5 0 0 1-.368-.423 19 19 0 0 1-.031 1.34q.053.03.105.065l2.248 1.57a1 1 0 0 1 .241.238l1.212 1.696 2.018.506a1 1 0 0 1-.488 1.94l-2.374-.596a1 1 0 0 1-.57-.389l-1.325-1.854-1.352-.944q-.12.591-.284 1.101l1.618 1.355a1 1 0 0 1 .337.971l-.473 2.26 1.259 1.259a1 1 0 1 1-1.414 1.414l-1.641-1.641a1 1 0 0 1-.272-.912l.46-2.202-.812-.68c-.33.375-.817.728-1.46.728-.599 0-1.061-.305-1.39-.65l-.483.521.477 2.283a1 1 0 0 1-.272.912l-1.64 1.641a1 1 0 1 1-1.415-1.414l1.259-1.259-.472-2.26a1 1 0 0 1 .246-.885l1.303-1.403a11 11 0 0 1-.263-.983l-.948.76-1.345 1.882a1 1 0 0 1-.57.389l-2.374.596a1 1 0 1 1-.487-1.94l2.017-.506 1.212-1.696a1 1 0 0 1 .188-.198L21 19.22l.037-.028A19 19 0 0 1 21 17.775a5 5 0 0 1-.369.423C19.599 19.259 17.968 20 15.585 20c-2.277 0-3.79-.495-4.683-1.348-.934-.89-1.034-2.016-.783-2.81l.195-.619 11.174-1.286.019-.067a1 1 0 0 1-.147-.102l-1.813-1.511-2.764-.614a1 1 0 0 1 .434-1.953l3 .667a1 1 0 0 1 .424.208l1.7 1.416q.046-.066.096-.129c.148-.188.336-.38.563-.534V5a1 1 0 0 1 1-1m11.87 13.028q-.06.087-.152.177c-.354.338-1.248.795-3.303.795-1.95 0-3.026-.593-3.616-1.198a3 3 0 0 1-.476-.643zm-23.74 0q.058.087.15.177c.355.338 1.25.795 3.304.795 1.95 0 3.026-.593 3.616-1.198.202-.207.358-.427.476-.643zM23 18c0-1.58.214-2.967.534-3.926.159-.477.326-.795.466-.975.139.18.306.498.465.975.32.959.535 2.347.535 3.926s-.215 2.968-.535 3.926c-.159.477-.326.795-.465.975-.14-.18-.307-.498-.466-.975C23.214 20.968 23 19.58 23 18"
    clip-rule="evenodd"
  />
  <path d="M23 40.586 28.586 35H25v-2h7v7h-2v-3.586L24.414 42H36v2H12v-2h9.586l-7.293-7.293 1.414-1.414z" />
</svg>
